!!! OTL: Literature45
!!! Chapter: 5
!!! Section: I
!!! Page: 354
!!! Mode: 
!!! Encoder: DJB
**kern
*staff1
*I"Piano
=1-
*clefG2
*k[b-]
*F:
*M2/4
4ff\
8a\L
8cc\J
=2
16b-/LL
16a/
16b-/
16g/JJ
8a/L
8f/J
=3
8c/L
8f/J
8a/L
8cc/J
=4
16b-/LL
16a/
16b-/
16g/JJ
8a/L
8cc/J
=5
4ff\
8a\L
8cc\J
=6
16b-/LL
16a/
16b-/
16g/JJ
8a/L
8f/J
=7
8c/L
8f/J
8a/L
8cc/J
=8
16b-/LL
16a/
16b-/
16g/JJ
4f/
=9
!!linebreak:original
8c/L
8f/J
8a/L
8cc/J
=10
16b-/LL
16a/
16b-/
16g/JJ
8a/L
8f/J
=11
8c/L
8f/J
8a/L
8cc/J
=12
16b-/LL
16a/
16b-/
16g/JJ
4a/
=13
8c/L
8f/J
8a/L
8cc/J
=14
16b-/LL
16a/
16b-/
16g/JJ
8a/L
8f/J
=15
8c/L
8f/J
8a/L
8cc/J
=16
16b-/LL
16a/
16b-/
16g/JJ
4f/
==
*-
